X:1
T: Cairngorum Mountain
C:
R:Jig
Q:180
K:A
M:6/8
L:1/16
|:E2|E2C2E2 E2C2E2|E2C2E2 E4AG|F2G2F2 F2E2F2|A2B2c2 c4c2|
B2c2e2 f2a2f2|e2c2B2 A2B2c2|c2f2e2 c4B2|c2A2F2 F4:|
|:e2|e2f2e2 e2c2e2|f2g2f2 f4e2|e2c2e2 f2e2d2|c4B2 A4fg|
a2f2e2 f2e2c2|e2c2B2 c2B2A2|B2c2e2 f2c2B2|A2F2F2 F4:|
